X: 25263
T: Man In The Bog
R: jig
M: 6/8
K: Gmajor
|:~G3 dBG|ABc AGE|EDB, DGB|dBG AGF|
~G3 dBG|ABc AGE|EDB, DGB|1 AGF G2D:|2 AGF GBd||
gfg fed|e/f/ge dBA|BEE dEE|BAG ABd|
gfg fed|e/f/ge dBA|BEE dBA|AGF GBd|
gfg fed|e/f/ge dBA|BEE dEE|ABA AGF|
~G3 dBG|ABc AGE|EDB, DGB|AGF G2D||

